X:422
T:Reel 422
M:4/4
K:Gmaj
L:1/8
dc|B>G (3GFG BGdG|D>G (3GGG B2Bc|d>G (3GGG GcBG|ADED EFEF|DGGG GGGAFE|DEFG ABcA|GDGF GABc|dgfe dcBc|dggf gagf|dggf d2dc|dggf gbag|fde^c d2Bc|dggf gbag|dede gfga|bgag bgag|dfed =fdcA|
